X:173
T: ICH KOMME VOM GEBIRGE HER
N: B0661A
O: Europa, Mitteleuropa, Deutschland, Thueringen
R: Moral - Lied, Einsamkeit
M: 3/4
L: 1/16
K: C
G2 | A2G2e6G2 | A3GD4z2
G2 | A2G2E6G2 | A2G2D4z2
B2 | c2E2E6c2 | B3AA4z2
G2 | e3cG2E2F2D2 | C8z2

@@@ Tune index: 2391
